icons/linear-new-other-office-business-tie.svg

<svg xmlns="http://www.w3.org/2000/svg" width="32px" height="32px" viewBox="0 0 32 32" version="1.1">
    <title>linear-new-other-office-business-tie</title>
    <g id="linear-new-other-office-business-tie" stroke-width="1" fill-rule="evenodd">
        <path d="M22,1 C22.743382,1 23.2268777,1.7823125 22.8944272,2.4472136 L19.8944272,8.4472136 C19.7250352,8.78599762 19.3787721,9 19,9 L11,9 C10.6212279,9 10.2749648,8.78599762 10.1055728,8.4472136 L7.10557281,2.4472136 C6.77312226,1.7823125 7.25661798,1 8,1 L22,1 Z M20.381,3 L9.618,3 L11.618,7 L18.381,7 L20.381,3 Z M19,11 C19.4794675,11 19.8914603,11.3403124 19.9820064,11.8111526 L22.4820064,24.8111526 C22.5502401,25.1659678 22.4217663,25.5299967 22.1459422,25.7633863 L15.6459422,31.2633863 C15.2730964,31.5788712 14.7269036,31.5788712 14.3540578,31.2633863 L7.85405776,25.7633863 C7.57823367,25.5299967 7.44975987,25.1659678 7.51799355,24.8111526 L10.0179936,11.8111526 C10.1085397,11.3403124 10.5205325,11 11,11 L19,11 Z M18.173,13 L11.826,13 L9.592,24.614 L14.999,29.19 L20.407,24.614 L18.173,13 Z M22.1989269,12.747 L27.7649112,19.3558643 C28.0993342,19.7529916 28.0742231,20.3399904 27.7071068,20.7071068 L24.3709269,24.043 L23.9149269,21.67 L25.643,19.941 L22.9729269,16.77 L22.1989269,12.747 Z" id="&#24418;&#29366;" fill-rule="nonzero" />
    </g>
</svg>

<svg xmlns="http://www.w3.org/2000/svg" viewBox="0 0 32 32"><path fill="currentColor" d="M22 1a1 1 0 0 1 .894 1.447l-3 6A1 1 0 0 1 19 9h-8a1 1 0 0 1-.894-.553l-3-6A1 1 0 0 1 8 1zm-1.619 2H9.618l2 4h6.763zM19 11a1 1 0 0 1 .982.811l2.5 13a1 1 0 0 1-.336.952l-6.5 5.5a1 1 0 0 1-1.292 0l-6.5-5.5a1 1 0 0 1-.336-.952l2.5-13A1 1 0 0 1 11 11zm-.827 2h-6.347L9.592 24.614l5.407 4.576 5.408-4.576zm4.026-.253 5.566 6.609a1 1 0 0 1-.058 1.351l-3.336 3.336-.456-2.373 1.728-1.729-2.67-3.171z"/></svg>
